X:64
T:Soldiers Joy. JGi.064
O:Tealby,Lincolnshire
M:C|
L:1/8
Q:1/4=150
S:Joshua Gibbons MS,1823,Tealby,Lincs.
N:See also Scotch Hornpipe
R:.hornpipe
Z:VMP/R.Greig, 2009
K:D
FG|AFDF AFDF|A2d2d2 cB|AFDF AFDF|G2E2E2 FG|
AFDF AFDF|A2d2d2(fg)|afdf gece|d2d2d2:|
|:g2|fede fagf|edcd efge|fede fagf|edcBA2g2|
fede fagf|edcd efge|fafd egec|d2d2d2:|

